X:1
T:66
L:1/8
M:3/4
K:C
V:1 treble nm="Piano" snm="Pno."
V:1
 E>F | G3 C A>G | F2 D2 D>E | F3 c B>A | G4 E>F | G e3 (3dcB | A2 F2 D>E | F A3 (3GB,D | C4 |] %9

